svg/account_arrow_up_outline.svg

<svg xmlns="http://www.w3.org/2000/svg" viewBox="0 0 24 24"><path d="M17 17v4h2v-4h2l-3-3-3 3zM11 4C8.8 4 7 5.8 7 8s1.8 4 4 4 4-1.8 4-4-1.8-4-4-4m0 2c1.1 0 2 .9 2 2s-.9 2-2 2-2-.9-2-2 .9-2 2-2m0 7c-2.7 0-8 1.3-8 4v3h9.5c-.3-.6-.4-1.2-.5-1.9H4.9V17c0-.6 3.1-2.1 6.1-2.1.5 0 1 .1 1.5.1.3-.6.6-1.2 1.1-1.7-1-.2-1.9-.3-2.6-.3"/></svg>

<svg xmlns="http://www.w3.org/2000/svg" id="mdi-account-arrow-up-outline" viewBox="0 0 24 24"><path d="M17 17V21H19V17H21L18 14L15 17H17M11 4C8.8 4 7 5.8 7 8S8.8 12 11 12 15 10.2 15 8 13.2 4 11 4M11 6C12.1 6 13 6.9 13 8S12.1 10 11 10 9 9.1 9 8 9.9 6 11 6M11 13C8.3 13 3 14.3 3 17V20H12.5C12.2 19.4 12.1 18.8 12 18.1H4.9V17C4.9 16.4 8 14.9 11 14.9C11.5 14.9 12 15 12.5 15C12.8 14.4 13.1 13.8 13.6 13.3C12.6 13.1 11.7 13 11 13" /></svg>
